!!!!SEGMENT: pl-wumfc--r282--002-003-pc1_paderewski-ignacy-jan--exercises-2-exercise-3-post-correcturam-pc1.krn
!!!cenid: 18xx:3178b
!!!COM: Paderewski, Ignacy Jan
!!!COM-rismid: pe30029943
!!!CDT: 1860/11/18-1941/06/29
!!!CNT: Polish
!!!GTL: [Exercises 2]
!!!OTL: [Exercise] 3 [post correcturam]
!!!OMV: 003
!!!PDT:
!!!AGN:
!!!SMS-siglum: PL-Wumfc
!!!SMS-shelfmark: R282
!!!SMS-shelfwork: 002-003 G
!!!SMS-variant:
!!!SMS-altvar:
!!!NIFC-rismid: 1001158933
!!!URL-scan: http://repozytorium.nifc.pl/skany/pl-wumfc--r282
!!!ONB-nifc: UWAGA: druga grupa ćwiczeń od skanu 0008
!!!key: G
**kern	**kern
*part1	*part1
*staff2	*staff1
*I"[Pianoforte]	*
*Ipiano	*
*ICklav	*
*clefF4	*clefG2
*k[f#]	*k[f#]
*G:	*G:
*	*^
!LO:TX:a:i:t=C. f.	!LO:TX:a:t=3 Stimmen	!
2G\	(<2g/	2g\
=1	=1	=1
2G\	2b/)	[<2d\
2F#\	2a/	2d\]
2E\	2cc/	2e\
2D\	2b/	2f#\
=2	=2	=2
2G\	2ee@/	2e@\
2A\	2cc/	2a@\
2B;\	2b;/	2g@\
2B\	2f#/	[<2d\
=3	=3	=3
2B\	2g/	2d\]
2B\	2dd/	2B\
2A\	2cc/	2c\
2G\	2b/	2d\
=4	=4	=4
2c\	2a/	2e\
2B\	2b/	2d\
!	!	!LO:TX:b:t=P:problem:fermata above note
2A;\	2cc;/	2c;>\
2G\	2b/	2d\
=5	=5	=5
2A\	2a/	2c\
2B\	2g/	2d\
2A\	2a/	2c\
2G\	2b/	2B\
!!LO:LB:g=original
=6	=6	=6
2E\	2cc/	2G\
2F#\	2a/	2A\
2G;\	2g;/	2B;\
2d\	2f#/	[<2d\
=7	=7	=7
2B\	2g/	2d\]
2G\	2b/	2B\
2A\	2a/	[<2c\
2c\	2ee/	2c\]
=8	=8	=8
2B\	2dd/	2d\
2A\	2cc/	2e\
2G\	2b/	2g\
*	*v	*v
==	==
*-	*-
!!!system-decoration: (s1,s2)
!!!RDF**kern: > = above
!!!RDF**kern: < = below
!!!RDF**kern: @ = marked note, color=gray
!!!ENC: Anastazja Marusiak
!!!END: 2021-11-12
!!!ENC: Andrzej Kubiczek
!!!END: 2021-11-16
